!!!ONR: No. 27
!! From Harold Courlander, "Haiti Singing"
!! Chapel Hill: University of North Carolina Press, 1939
!! Copyright University of North Carolina Press
!!!ENC: D. Huron
**kern
*clefG2
*k[]
*M2/4
=1-
4r
8g
8b
=
4dd
8ee
8dd
=
8ee
8b
4dd
=
8g
8b
8a
[8g
=
8g]
8a
8g
8g
=
8d
8e
[4g
=
4g]
8b
8dd
=
8ee
8dd
8ee
8dd
=
4a
8g
8a
=
4g
[4dd
=
4dd]
8g
8b
=
4dd
8ee
8dd
=
8ee
8b
4dd
=
8g
8b
8a
[8g
=
8g]
8a
8g
8g
=
4d
4e
=
[2g
=
4g]
4r
==
*-
